X: 38900
T: Sunshine
R: barndance
M: 4/4
K: Dmajor
P:A
A2dc d3A-|ABAG F2D2|E2dc d3G-|GAGF E2FG|A2dc d3A-|
ABAG F2D2|1 E2dc d3G-|GAGF E2FG:|2 E2dc de2c-|c6 de||
P:B
|:Tf2ed A3B-|BGGF EDEF|GBAG A2FA|GFEG F2D2|
Tf2ed A3B-|BGGF EDEF|GBAG A2FA|GF{EF}E2 D4:|

